Papirus/64x64/apps/borderlands-2.svg

<svg xmlns="http://www.w3.org/2000/svg" width="64" height="64" version="1">
 <rect style="opacity:0.2" width="56" height="56" x="4" y="5" rx="28" ry="28"/>
 <rect style="fill:#aa3131" width="56" height="56" x="4" y="4" rx="28" ry="28"/>
 <path style="opacity:0.2" d="m 36.564358,11.483845 c -2.322468,-0.49777 -4.749114,-0.614017 -7.119638,-0.336917 -3.439922,0.402057 -6.770672,1.630054 -9.661684,3.561604 -2.857866,1.909238 -5.20462,4.426274 -6.895848,7.393124 -0.647983,1.136666 -1.20051,2.349432 -1.641699,3.606658 -0.308401,0.879704 -0.589979,1.8975 -0.78293,2.823122 -1.003088,4.8223 -0.365606,9.795244 1.823661,14.216432 0.15813,0.31919 0.16287,0.328158 0.176772,0.32044 0.01518,-0.0066 0.08687,-0.1095 1.105479,-1.547214 3.836247,-5.41459 9.017553,-12.79997 15.094419,-21.50868 1.85198,-2.653932 2.365314,-3.388075 2.45825,-3.527093 0.576378,-0.862479 1.166008,-1.496204 1.829472,-1.965095 0.15918,-0.112242 0.54938,-0.335379 0.722678,-0.412983 0.7984,-0.357701 1.64342,-0.462953 2.591362,-0.319414 0.261966,0.03965 0.42951,0.07567 0.727882,0.1556 0.298374,0.07991 0.461548,0.132742 0.708186,0.229085 0.89274,0.349514 1.574476,0.863767 2.086886,1.5726 0.11126,0.153888 0.337838,0.542193 0.41931,0.718893 0.34006,0.737712 0.533608,1.580799 0.601548,2.616303 0.02678,0.401858 0.400822,4.687406 0.684686,7.843002 0.441932,4.91252 0.868488,9.457748 1.596124,16.986138 0.367974,3.806128 0.587314,6.09658 0.685358,7.144706 0.02268,0.246476 0.04408,0.454444 0.047,0.461612 0.0088,0.0174 0.0142,0.0158 0.1887,-0.0965 1.058626,-0.680848 2.119096,-1.506926 3.057472,-2.381884 2.419242,-2.255624 4.280762,-5.029406 5.465942,-8.143776 0.291438,-0.766238 0.485464,-1.370266 0.709142,-2.204812 0.1357,-0.506302 0.1919,-0.773072 0.287932,-1.201656 0.879884,-4.187978 0.517664,-8.515004 -1.04859,-12.512084 -0.638028,-1.627974 -1.49065,-3.21222 -2.500434,-4.645328 -2.735282,-3.881723 -6.610642,-6.751794 -11.107142,-8.224387 -0.718178,-0.235134 -1.563896,-0.462021 -2.310286,-0.621485 z m -0.600744,5.85751 c -1.663676,-0.172874 -2.72948,1.002236 -3.639104,2.239205 -4.306714,7.456906 -8.897572,15.532782 -13.556423,23.845414 -1.339692,2.390322 -2.652613,4.742254 -2.657475,4.760392 -0.004,0.0148 0.05345,0.07898 0.282195,0.309294 2.625601,2.646722 5.873415,4.572008 9.461779,5.612064 0.448472,0.1295 0.440048,0.12684 0.86262,0.231072 0.976474,0.239792 1.830618,0.398644 2.765726,0.509794 2.779782,0.330402 5.56919,0.11934 8.278678,-0.626136 0.10744,-0.02954 0.1977,-0.0597 0.201094,-0.06432 0.0024,-0.0088 0.0182,-0.72432 0.05006,-3.048326 0.12428,-9.073282 0.19386,-18.466736 0.20412,-27.47662 -0.14656,-2.714306 -0.0156,-5.540825 -2.253286,-6.291857 z"/>
 <path style="fill:#f7b400" d="M 36.564358,10.483845 C 34.24189,9.9860746 31.815244,9.869828 29.44472,10.146928 c -3.439922,0.402057 -6.770672,1.630054 -9.661684,3.561604 -2.857866,1.909238 -5.20462,4.426274 -6.895848,7.393124 -0.647983,1.136666 -1.20051,2.349432 -1.641699,3.606658 -0.308401,0.879704 -0.589979,1.8975 -0.78293,2.823122 -1.003088,4.8223 -0.365606,9.795244 1.823661,14.216432 0.15813,0.31919 0.16287,0.328158 0.176772,0.32044 0.01518,-0.0066 0.08687,-0.1095 1.105479,-1.547214 3.836247,-5.41459 9.017553,-12.79997 15.094419,-21.508679 1.85198,-2.653933 2.365314,-3.388076 2.45825,-3.527094 0.576378,-0.862479 1.166008,-1.496204 1.829472,-1.965095 0.15918,-0.112242 0.54938,-0.335379 0.722678,-0.412983 0.7984,-0.357701 1.64342,-0.462953 2.591362,-0.319414 0.261966,0.03965 0.42951,0.07567 0.727882,0.1556 0.298374,0.07991 0.461548,0.132742 0.708186,0.229085 0.89274,0.349514 1.574476,0.863767 2.086886,1.5726 0.11126,0.153888 0.337838,0.542193 0.41931,0.718893 0.34006,0.737712 0.533608,1.580799 0.601548,2.616303 0.02678,0.401858 0.400822,4.687406 0.684686,7.843002 0.441932,4.91252 0.868488,9.457748 1.596124,16.986138 0.367974,3.806128 0.587314,6.09658 0.685358,7.144706 0.02268,0.246476 0.04408,0.454444 0.047,0.461612 0.0088,0.0174 0.0142,0.0158 0.1887,-0.0965 1.058626,-0.680848 2.119096,-1.506926 3.057472,-2.381884 2.419242,-2.255624 4.280762,-5.029406 5.465942,-8.143776 0.291438,-0.766238 0.485464,-1.370266 0.709142,-2.204812 0.1357,-0.506302 0.1919,-0.773072 0.287932,-1.201656 0.879884,-4.187978 0.517664,-8.515004 -1.04859,-12.512084 -0.638028,-1.627974 -1.49065,-3.21222 -2.500434,-4.645328 -2.735282,-3.881723 -6.610642,-6.751794 -11.107142,-8.224387 -0.718178,-0.235134 -1.563896,-0.462021 -2.310286,-0.621485 z m -0.600744,5.85751 c -1.663676,-0.172874 -2.72948,1.002236 -3.639104,2.239205 -4.306714,7.456906 -8.897572,15.532782 -13.556423,23.845414 -1.339692,2.390322 -2.652613,4.742254 -2.657475,4.760392 -0.004,0.0148 0.05345,0.07898 0.282195,0.309294 2.625601,2.646722 5.873415,4.572008 9.461779,5.612064 0.448472,0.1295 0.440048,0.12684 0.86262,0.231072 0.976474,0.239792 1.830618,0.398644 2.765726,0.509794 2.779782,0.330402 5.56919,0.11934 8.278678,-0.626136 0.10744,-0.02954 0.1977,-0.0597 0.201094,-0.06432 0.0024,-0.0088 0.0182,-0.72432 0.05006,-3.048326 0.12428,-9.073282 0.19386,-18.466736 0.20412,-27.47662 -0.14656,-2.714307 -0.0156,-5.540825 -2.253286,-6.291857 z"/>
 <path style="opacity:0.1;fill:#ffffff" d="M 32 4 C 16.488 4 4 16.488 4 32 C 4 32.11345 4.0112805 32.224113 4.0175781 32.335938 C 4.3691213 17.134181 16.710728 5 32 5 C 47.289272 5 59.630879 17.134181 59.982422 32.335938 C 59.98872 32.224113 60 32.11345 60 32 C 60 16.488 47.512 4 32 4 z"/>
 <path style="opacity:0.2;fill:#ffffff" d="M 32.574219 10.007812 C 32.12645 9.9955207 31.678325 9.9965002 31.230469 10.011719 C 30.633329 10.032009 30.037944 10.07916 29.445312 10.148438 C 26.005391 10.550496 22.672262 11.775482 19.78125 13.707031 C 16.923384 15.61627 14.577947 18.134713 12.886719 21.101562 C 12.238736 22.238229 11.687282 23.449805 11.246094 24.707031 C 10.937692 25.586735 10.653888 26.605628 10.460938 27.53125 C 10.124804 29.147198 9.9876309 30.780717 10.017578 32.404297 C 10.052065 31.111509 10.193788 29.815558 10.460938 28.53125 C 10.653888 27.605628 10.937692 26.586735 11.246094 25.707031 C 11.687282 24.449805 12.238736 23.238228 12.886719 22.101562 C 14.577947 19.134712 16.923384 16.61627 19.78125 14.707031 C 22.672262 12.775482 26.005391 11.550496 29.445312 11.148438 C 30.037944 11.07916 30.633329 11.032009 31.230469 11.011719 C 33.021895 10.950845 34.82065 11.111047 36.5625 11.484375 C 37.30889 11.643839 38.156822 11.870335 38.875 12.105469 C 43.3715 13.578062 47.245187 16.446402 49.980469 20.328125 C 50.990253 21.761234 51.842441 23.348588 52.480469 24.976562 C 53.424968 27.386922 53.917963 29.917559 53.976562 32.464844 C 54.041269 29.581017 53.548563 26.702334 52.480469 23.976562 C 51.842441 22.348588 50.990253 20.761234 49.980469 19.328125 C 47.245187 15.446402 43.3715 12.578062 38.875 11.105469 C 38.156822 10.870335 37.30889 10.643839 36.5625 10.484375 C 35.256113 10.204379 33.917526 10.044688 32.574219 10.007812 z M 35.367188 16.335938 C 34.036215 16.461959 33.120141 17.499683 32.324219 18.582031 C 28.017505 26.038938 23.428382 34.113149 18.769531 42.425781 C 17.42984 44.816103 16.114237 47.169362 16.109375 47.1875 C 16.105375 47.2023 16.165785 47.26578 16.394531 47.496094 C 16.416087 47.517824 16.440489 47.535984 16.462891 47.556641 C 16.748972 47.038849 17.60746 45.499188 18.769531 43.425781 C 23.428382 35.113149 28.017505 27.038938 32.324219 19.582031 C 33.120141 18.499683 34.036215 17.461959 35.367188 17.335938 C 35.557325 17.317928 35.756884 17.318234 35.964844 17.339844 C 38.169072 18.07964 38.076102 20.835164 38.212891 23.511719 C 38.215634 23.216725 38.218346 22.921015 38.21875 22.632812 C 38.07219 19.918506 38.20255 17.090876 35.964844 16.339844 C 35.756884 16.318234 35.557325 16.317928 35.367188 16.335938 z"/>
</svg>

<svg xmlns="http://www.w3.org/2000/svg" width="64" height="64" version="1">
 <circle style="opacity:0.2" cx="-32" cy="33" r="28" transform="scale(-1,1)"/>
 <circle style="fill:#aa3131" cx="-32" cy="32" r="28" transform="scale(-1,1)"/>
 <path style="opacity:0.1;fill:#ffffff" d="M 32,4 A 28,28 0 0 1 60,32 28,28 0 0 1 59.978,32.586 28,28 0 0 0 32,5 28,28 0 0 0 4.021,32.414 28,28 0 0 1 4,32 28,28 0 0 1 32,4 Z"/>
 <path style="opacity:0.2" d="M 36.564,11.484 C 34.242,10.986 31.815,10.87 29.445,11.147 26.005,11.549 22.674,12.777 19.783,14.709 16.925,16.618 14.578,19.135 12.887,22.102 12.239,23.238 11.687,24.451 11.245,25.708 10.937,26.588 10.656,27.606 10.463,28.531 9.459,33.354 10.097,38.327 12.286,42.748 L 12.463,43.068 C 12.463,43.068 31.028,16.624 31.121,16.485 31.698,15.623 32.287,14.989 32.951,14.52 33.11,14.408 33.5,14.185 33.673,14.107 34.472,13.75 35.317,13.644 36.265,13.788 36.924,13.886 37.121,13.945 37.701,14.173 38.593,14.522 39.275,15.036 39.788,15.745 39.899,15.899 40.125,16.287 40.207,16.464 40.547,17.202 40.741,18.045 40.808,19.08 L 43.822,51.516 44.01,51.419 C 45.069,50.738 46.129,49.912 47.068,49.037 49.487,46.782 51.349,44.008 52.534,40.894 52.825,40.127 53.435,37.916 53.531,37.487 54.411,33.299 54.049,28.972 52.482,24.975 51.844,23.347 50.992,21.763 49.982,20.33 47.247,16.448 43.371,13.578 38.875,12.105 38.156,11.87 37.311,11.643 36.564,11.484 Z M 35.964,17.341 C 34.3,17.168 33.234,18.344 32.325,19.581 28.018,27.037 23.427,35.113 18.768,43.426 17.428,45.816 16.115,48.168 16.111,48.186 16.107,48.201 16.164,48.265 16.393,48.496 19.018,51.142 22.266,53.068 25.855,54.108 26.675,54.344 28.035,54.676 29.483,54.849 32.263,55.179 35.052,54.968 37.762,54.222 L 37.963,54.158 38.217,23.633 C 38.07,20.919 38.201,18.092 35.964,17.341 Z"/>
 <path style="fill:#f7b400" d="M 36.564,10.484 C 34.242,9.9861 31.815,9.8698 29.445,10.147 26.005,10.549 22.674,11.777 19.783,13.709 16.925,15.618 14.578,18.135 12.887,21.102 12.239,22.238 11.687,23.451 11.245,24.708 10.937,25.588 10.656,26.606 10.463,27.531 9.459,32.354 10.097,37.327 12.286,41.748 L 12.463,42.068 C 12.463,42.068 31.028,15.624 31.121,15.485 31.698,14.623 32.287,13.989 32.951,13.52 33.11,13.408 33.5,13.185 33.673,13.107 34.472,12.75 35.317,12.644 36.265,12.788 36.924,12.886 37.121,12.945 37.701,13.173 38.593,13.522 39.275,14.036 39.788,14.745 39.899,14.899 40.125,15.287 40.207,15.464 40.547,16.202 40.741,17.045 40.808,18.08 L 43.822,50.516 44.01,50.419 C 45.069,49.738 46.129,48.912 47.068,48.037 49.487,45.782 51.349,43.008 52.534,39.894 52.825,39.127 53.435,36.916 53.531,36.487 54.411,32.299 54.049,27.972 52.482,23.975 51.844,22.347 50.992,20.763 49.982,19.33 47.247,15.448 43.371,12.578 38.875,11.105 38.156,10.87 37.311,10.643 36.564,10.484 Z M 35.964,16.341 C 34.3,16.168 33.234,17.344 32.325,18.581 28.018,26.037 23.427,34.113 18.768,42.426 17.428,44.816 16.115,47.168 16.111,47.186 16.107,47.201 16.164,47.265 16.393,47.496 19.018,50.142 22.266,52.068 25.855,53.108 26.675,53.344 28.035,53.676 29.483,53.849 32.263,54.179 35.052,53.968 37.762,53.222 L 37.963,53.158 38.217,22.633 C 38.07,19.919 38.201,17.092 35.964,16.341 Z"/>
 <path style="opacity:0.2;fill:#ffffff" d="M 31.23,10.014 C 33.022,9.9528 34.823,10.111 36.564,10.484 37.311,10.643 38.156,10.87 38.875,11.105 43.371,12.578 47.247,15.448 49.982,19.33 50.992,20.763 51.844,22.347 52.482,23.975 53.543,26.679 54.037,29.537 53.982,32.398 53.915,29.873 53.419,27.364 52.482,24.975 51.844,23.347 50.992,21.763 49.982,20.33 47.247,16.448 43.371,13.578 38.875,12.105 38.156,11.87 37.311,11.643 36.564,11.484 34.242,10.986 31.815,10.869 29.445,11.146 26.005,11.548 22.674,12.777 19.783,14.709 16.925,16.618 14.578,19.135 12.887,22.102 12.239,23.238 11.686,24.45 11.244,25.707 10.936,26.587 10.656,27.606 10.463,28.531 10.214,29.725 10.068,30.928 10.02,32.129 10.011,30.596 10.145,29.057 10.463,27.531 10.656,26.606 10.936,25.587 11.244,24.707 11.686,23.45 12.239,22.238 12.887,21.102 14.578,18.135 16.925,15.618 19.783,13.709 22.674,11.777 26.005,10.548 29.445,10.146 30.038,10.077 30.633,10.034 31.23,10.014 Z M 35.367,16.336 C 35.557,16.318 35.757,16.32 35.965,16.342 38.202,17.093 38.07,19.919 38.217,22.633 L 38.209,23.488 C 38.074,20.82 38.162,18.079 35.965,17.342 34.301,17.169 33.233,18.343 32.324,19.58 28.017,27.036 23.427,35.113 18.768,43.426 17.604,45.502 16.744,47.047 16.461,47.561 16.439,47.538 16.415,47.518 16.393,47.496 16.164,47.265 16.107,47.201 16.111,47.186 16.115,47.168 17.428,44.816 18.768,42.426 23.427,34.113 28.017,26.036 32.324,18.58 33.12,17.498 34.036,16.462 35.367,16.336 Z"/>
</svg>
